X:1
T:Conceptio tua - Marenzio
T:#
%%score [ 1 2 3 4 ]
L:1/8
Q:1/4=200
M:none
K:C
V:1 treble nm="Soprano" snm="S"
V:2 treble nm="Alto" snm="A"
V:3 treble-8 nm="Tenor" snm="T"
V:4 bass nm="Bass" snm="B"
V:1
"^Conceptio tua""^Luca Marenzio\n(1556-1599)" z16 | z16 | G16 | c12 B4 | A8 G8 | A4 d4 B4 c4- | %6
w: ||Con-|ce- pti-|o tu-|a, De- i ge\-|
[M:4/2] c2 c2 B4 e8 | d8 z8 | z4 g4 e4 f4- | f2 f2 e8 (d4- | d2 c2 c2 BA B4 c4-) | %11
w: * ni- trix vir-|go,|De- i ge\-|* ni- trix vir\-||
 (c2 B2 B2 AG A8 | G8) (F2 G2 A2 B2 | c8) z4 d4 | (e6 d2 c4) B4 | A8 G8 | z8 z4 (c2 d2 | %17
w: |* go, * * *|* an-|nun\- * * ti-|a- vit,|gau\- *|
 e2 f2 g8) ^f4 | g16 | z8 z4 d4 | (e6 d2 c4) B4 | A8 G8- | G8 z8 | z4 d4 c4 B4 | %24
w: * * * di-|um|an-|nun\- * * ti-|a- vit||in u- ni-|
 (A2 B2 c2 d2 e4) d4 | A16 | A16 | z16 | z8 z4 d4 | d4 c8 B4 | d8 A4 _B4 | A6 A2 G4 F4 | %32
w: ver\- * * * * so|mun-|do:||Ex|te e- nim|or- tus est|sol ju- sti- ti-|
 G4 g4 g4 f4- | f4 e4 g8 | d4 e4 d8 | A8 A4 G4 | A16 | z4 c8 B4 | A16- | A8 B8 | c16- | c16 | %42
w: ae, ex te e\-|* nim or-|tus est sol|ju- sti- ti-|ae,|Chri- stus|De\-|* us|no\-||
 c8 z4 A4 | (B6 G2 A8) | e8 z4 f4 | g6 e2 f6 d2 | e8 A4 (d4- | d2 c2 c8 B4 | A8 d8) | (e6 dc B8) | %50
w: ster: Qui|sol\- * *|vens, qui|sol- vens ma- le-|di- cti- o\-|||nem, * * *|
 z4 (d6 cB A2 B2) | c8 c4 c4- | c4 _B4 A4 G4 | A8 A8 | z4 d6 c2 =B4 | A8 z4 g4- | g2 f2 e4 d4 c4 | %57
w: de\- * * * *|* dit be\-|* ne- di- cti-|o- nem;|et con- fun-|dens, et|* con- fun- dens mor-|
 B16 | z4 g6 f2 e4 | d4 c6 A2 d4- | d2 c2 (c6 B2 B2 AB | c8 B6 c2 | d2 c2 B2 A2) G8 | z4 d4 d4 d4 | %64
w: tem,|et con- fun-|dens, et con- fun\-|* dens mor\- * * * *||* * * * tem,|do- na- vit|
 B4 G4 d8 | A8 B4 B4 | (A6 B2 c2 d2 e4- | e2 d2 d2 cB c8- | c4 B2 A2 B2 c2 d4-) | %69
w: no- bis vi-|tam sem- pi-|ter- * * * *|||
 (d2 c2 c6 B2 B2 AG | A8) G4[Q:1/4=198] G4 | %71
w: |* nam, sem-|
[Q:1/4=194] F4[Q:1/4=192] (D2[Q:1/4=190] E2[Q:1/4=188] F2[Q:1/4=186] G2[Q:1/4=184] A4- | %72
w: pi- ter\- * * * *|
[Q:1/4=181] A2[Q:1/4=180] G2[Q:1/4=176] G8[Q:1/4=171] ^F4) |[Q:1/4=170] G16 |] %74
w: |nam.|
V:2
 D16 | G12 F4 | E8 D8 | E8 z4 G4 | E4 F6 F2 E4 | D8 G8 |[M:4/2] z8 G8- | G8 c8- | c4 B4 A8 | G16 | %10
w: Con-|ce- pti-|o tu-|a, De-|i ge- ni- trix|vir- go,|con\-|* ce\-|* pti- o|tu-|
 A8 z8 | z4 G4 E4 F4- | F2 F2 E4 A8- | A8 G8 | z4 (C2 D2 E2 F2 G4- | G4) ^F4 G8- | G8 z4 c4- | %17
w: a,|De- i ge\-|* ni- trix vir\-|* go,|gau\- * * * *|* di- um,|* gau\-|
 c4 B4 A8 | z4 (C2 D2 E2 F2 G4- | G4) ^F4 G8- | G8 z8 | z4 A4 B4 B4 | (c6 B2 A2 G2 G4- | %23
w: * di- um,|gau\- * * * *|* di- um||an- nun- ti-|a\- * * * *|
 G2 ^FE F4) G8 | z4 A4 G4 F4 | E4 D8 ^C4 | D8 z8 | z4 A4 A4 G4- | G4 E4 G8 | D4 E4 D8 | z4 D8 F4- | %31
w: * * * * vit|in u- ni-|ver- so mun-|do:|Ex te e\-|* nim or-|tus est sol|ju- sti\-|
 (F4 E2 D2 E2 C2 F4- | F2 ED E2 F2 G2 E2 A4- | A2 GF G2 A2 _B6) B2 | A8 z4 D4- | D4 (F8 E2 D2 | %36
w: ||* * * * * * ti-|ae, ju\-|* sti\- * *|
 E6 D2 E4) F4 | E4 A8 G4 | (F8 E8) | (^F8 G8) | (A16 | G16) | A16 | z8 z4 F4 | (G6 E2 F6 D2 | %45
w: * * * ti-|ae, Chri- stus|De\- *|us *|no\-||ster:|Qui|sol\- * * *|
 E8) A,4 D4- | D2 C2 C8 B,4 | (C8 D6 E2 | F2 ED E2 F2 G8) | G8 z4 (G4- | G2 FE D2 E2 F8) | %51
w: * vens ma\-|* le- di- cti-|o\- * *||nem, de\-||
 E8 A4 A4 | G6 F2 (E4 D4- | D4 ^C2 B,2 C4 D4) | A,8 z4 D4- | D2 E2 ^F4 G8- | G8 z4 G4- | %57
w: dit be- ne-|di- cti- o\- *||nem; et|* con- fun- dens,|* et|
 G2 F2 E4 D4 G4- | G2 F2 E4 (D6 C2 | D4) G4 A8 | z4 G4 G4 G4 | E4 C4 G8 | D8 E4 E4 | %63
w: * con- fun- dens, et|* con- fun- dens *|* mor- tem,|do- na- vit|no- bis vi-|tam sem- pi-|
 (D4 G6 ^FE F4) | (G12 F2 E2 | F6 E2 D8) | z4 A4 A4 A4 | G4 D4 E4 F4 | (G6 FE D4) D4 | E8 D4 G4- | %70
w: ter\- * * * *|nam, * *||do- na- vit|no- bis vi- tam|sem\- * * * pi-|ter- nam, vi\-|
 G4 F4 E8 | A,8 D8- | D16 | D16 |] %74
w: * tam sem-|pi- ter\-||nam.|
V:3
 z16 | G16 | c12 B4 | A8 G8 | A4 d4 B4 c4- | c2 c2 B4 e8 |[M:4/2][K:treble-8] d8 z8 | %7
w: |Con-|ce- pti-|o tu-|a, De- i ge-|* ni- trix vir-|go,|
 z4 d4 f4 e4- | e2 e2 d4 ^c4 d4 | z8 z4 g4 | e4 f6 f2 e4 | d8 c8- | c8 z4 f4- | f4 e4 d8 | z16 | %15
w: De- i ge\-|* ni- trix vir- go,|De-|i ge- ni- trix|vir- go,|* gau\-|* di- um,||
 z8 z4 (c2 d2) | (e2 f2 g8) ^f4 | g8 z4 d4 | (e6 d2 c4) B4 | A8 G8 | z4 (c2 d2 e2 f2 g4-) | %21
w: gau\- *|* * * di-|um an-|nun\- * * ti-|a- vit,|gau\- * * * *|
 g4 ^f4 g4 d4 | (e6 d2 c4) B4 | A8 G4 G4 | A8 B8 | c4 d4 e8 | (f12 e2 d2 | e16) | z16 | z8 z4 g4 | %30
w: * di- um an-|nun\- * * ti-|a- vit in|u- ni-|ver- so mun-|do: * *|||Ex|
 g4 f8 d4 | f8 c4 d4 | c12 F4 | c6 c2 G8 | z4 e4 g8 | (f6 ed c4) (d4- | d4 c2 B2 c4) A4 | %37
w: te e- nim|or- tus est|sol ju-|sti- ti- ae,|est sol|ju\- * * * sti\-|* * * * ti-|
 c8 z4 e4- | e4 d4 ^c8 | d16 | z4 (f6 c2 f4- | f4 e2 d2 e8) | f4 c8 (d4- | d2 B2 e6 d2 d4- | %44
w: ae, Chri\-|* stus De-|us|no\- * *||ster: Qui sol\-||
 d2 ^cB c4) d8 | z8 z4 d4 | (g6 e2 f6 d2 | e8) A4 d4- | d2 c2 c8 B4 | c8 G8 | z4 (d6 e2 f2 g2) | %51
w: * * * * vens,|qui|sol\- * * *|* vens ma\-|* le- di- cti-|o- nem,|de\- * * *|
 a8 e4 e4- | e4 d4 c4 d4 | e8 e4 f4- | f2 g2 a4 d8 | z4 d6 c2 B4 | d4 g6 f2 e4 | d4 g6 f2 e4 | %58
w: * dit be\-|* ne- di- cti-|o- nem; et|* con- fun- dens,|et con- fun-|dens, et con- fun-|dens, et con- fun-|
 d4 c4 B4 g4- | g2 f2 e4 f8 | (g6 fe d8 | c6 BA G6 A2 | B2 c2 d6 c2 c4- | c2 B2 B2 AG A8) | %64
w: dens mor- tem, et|* con- fun- dens|mor\- * * *||||
 G8 z4 d4 | d4 d4 B4 G4 | d8 A8 | B4 B4 A8 | G8 z8 | z8 z4 d4 | d4 d4 B4 G4 | d8 A8 | B4 B4 A8 | %73
w: tem, do-|na- vit no- bis|vi- tam|sem- pi- ter-|nam,|do-|na- vit no- bis|vi- tam|sem- pi- ter-|
 G16 |] %74
w: nam.|
V:4
 z16 | z16 | z16 | z16 | z16 | z8 G,8- |[M:4/2] G,8 C8- | C4 B,4 A,8 | G,8 A,4 D4 | B,4 C6 C2 B,4 | %10
w: |||||Con\-|* ce\-|* pti- o|tu- a, De-|i ge- ni- trix|
 A,8 G,8- | G,8 z8 | z8 z4 (F,2 G,2 | A,2 B,2 C8) B,4 | C8 z8 | z4 D4 (E6 D2) | C4 B,4 A,8 | %17
w: vir- go,||gau\- *|* * * di-|um,|an- nun\- *|* ti- a-|
 G,8 z8 | z16 | z8 z4 G,4 | (C6 B,2 A,4) G,4 | D8 G,8 | C,16 | D,8 E,8 | F,8 G,8 | A,16 | %26
w: vit,||an-|nun\- * * ti-|a- vit|in|u- ni-|ver- so|mun-|
 D,4 D4 D4 C4- | C4 A,4 C8 | G,4 A,4 G,8- | G,4 C,4 G,6 G,2 | D,16- | D,8 z8 | z16 | z8 z4 D4 | %34
w: do: Ex te e\-|* nim or-|tus est sol|* ju- sti- ti-|ae,|||ex|
 D4 C8 B,4 | D8 A,4 _B,4 | A,12 D,4 | A,6 A,2 E,8 | A,16 | D,8 G,8 | F,8 (A,6 B,2 | C16) | %42
w: te e- nim|or- tus est|sol ju-|sti- ti- ae,|Chri-|stus De-|us no\- *||
 F,8 F,8 | (G,6 E,2 F,6 D,2 | E,8) D,4 D4- | D2 C2 C8 B,4 | C8 D8 | A,6 A,2 F,4 G,4 | (A,8 G,8) | %49
w: ster: Qui|sol\- * * *|* vens ma\-|* le- di- cti-|o- nem,|ma- le- di- cti-|o\- *|
 C,8 z4 (G,4- | G,2 A,2 B,2 C2 D8) | A,8 (A,6 B,2 | C4) G,4 A,4 _B,4 | A,8 A,4 D,4- | %54
w: nem, de\-||dit be\- *|* ne- di- cti-|o- nem; et|
 D,2 E,2 ^F,4 G,8 | z8 G,6 A,2 | B,4 C4 G,8 | G,8 G,6 A,2 | B,4 C4 G,6 A,2 | B,4 C4 F,8 | %60
w: * con- fun- dens,|et con-|fun- dens mor-|tem, et con-|fun- dens, et con-|fun- dens mor\-|
 (E,6 F,2 G,8) | A,8 z4 G,4 | G,4 G,4 E,4 C,4 | G,8 D,8 | E,4 E,4 D,8- | D,8 G,8 | z16 | z16 | %68
w: |tem, do-|na- vit no- bis|vi- tam|sem- pi- ter\-|* nam,|||
 z4 G,4 G,4 G,4 | E,4 C,4 G,8 | D,8 E,4 E,4 | D,16- | D,16 | G,16 |] %74
w: do- na- vit|no- bis vi-|tam sem- pi-|ter\-||nam.|

